X: 1813
T: Pop Holland's Jig
B: australian traditional tunes wiki
M:6/8
L:1/8
R: Jig
Q: 3/8=100
K:D
V:1 
|:"D"DEF DEF|"Em"EFG EFG|"D"A2d dcd|"A7"e2d cBA|
"D"DEF DEF|"Em"EFG EFG|"D"ABA "A7"GFE|"D"D4zA:|
|:"D"D2d ded|"A7(F#m)"cAB c2c|"Em"BBB Bcd|"A7"cAA ABc|
"D"dcd FGA|"Em"BdB EFG|"D"ABA "A7"GFE|1"D"D4zA:|2"D"D6||
% abcbook-tune_id 6342d53ae19288e8c534554f


% abcbook-boost 0
% abcbook-tablature 
% abcbook-transpose 
% abcbook-lastupdated 1665324385474
% abcbook-soundfonts 
% abcbook-repeats 1
% NFF Book 2009

